(G-CODE GENERATED BY FLATCAM v8.994 - www.flatcam.org - Version Date: 2020/11/7)

(Name: HYB_ESPA.drl_cnc)
(Type: G-code from Geometry)
(Units: MM)

(Created on Wednesday, 30 April 2025 at 21:43)

(This preprocessor is the default preprocessor used by FlatCAM.)
(It is made to work with MACH3 compatible motion controllers.)


(TOOLS DIAMETER: )
(Tool: 1 -> Dia: 0.8)
(Tool: 2 -> Dia: 0.8)
(Tool: 3 -> Dia: 0.8)
(Tool: 4 -> Dia: 0.8)
(Tool: 5 -> Dia: 0.8)
(Tool: 6 -> Dia: 0.8)
(Tool: 7 -> Dia: 0.9)
(Tool: 8 -> Dia: 0.95)
(Tool: 9 -> Dia: 0.99)
(Tool: 10 -> Dia: 1.0)
(Tool: 11 -> Dia: 1.2)
(Tool: 12 -> Dia: 1.2)
(Tool: 13 -> Dia: 1.3)
(Tool: 14 -> Dia: 1.4)
(Tool: 15 -> Dia: 1.5)
(Tool: 16 -> Dia: 3.2)
(Tool: 17 -> Dia: 0.8)
(Tool: 18 -> Dia: 0.8)
(Tool: 19 -> Dia: 0.8)
(Tool: 20 -> Dia: 1.2)
(Tool: 21 -> Dia: 1.2)

(FEEDRATE Z: )
(Tool: 1 -> Feedrate: 600.0)
(Tool: 2 -> Feedrate: 600.0)
(Tool: 3 -> Feedrate: 600.0)
(Tool: 4 -> Feedrate: 600.0)
(Tool: 5 -> Feedrate: 600.0)
(Tool: 6 -> Feedrate: 600.0)
(Tool: 7 -> Feedrate: 600.0)
(Tool: 8 -> Feedrate: 600.0)
(Tool: 9 -> Feedrate: 600.0)
(Tool: 10 -> Feedrate: 600.0)
(Tool: 11 -> Feedrate: 600.0)
(Tool: 12 -> Feedrate: 600.0)
(Tool: 13 -> Feedrate: 600.0)
(Tool: 14 -> Feedrate: 600.0)
(Tool: 15 -> Feedrate: 600.0)
(Tool: 16 -> Feedrate: 600.0)
(Tool: 17 -> Feedrate: 600.0)
(Tool: 18 -> Feedrate: 600.0)
(Tool: 19 -> Feedrate: 600.0)
(Tool: 20 -> Feedrate: 600.0)
(Tool: 21 -> Feedrate: 600.0)

(FEEDRATE RAPIDS: )
(Tool: 1 -> Feedrate Rapids: 1500)
(Tool: 2 -> Feedrate Rapids: 1500)
(Tool: 3 -> Feedrate Rapids: 1500)
(Tool: 4 -> Feedrate Rapids: 1500)
(Tool: 5 -> Feedrate Rapids: 1500)
(Tool: 6 -> Feedrate Rapids: 1500)
(Tool: 7 -> Feedrate Rapids: 1500)
(Tool: 8 -> Feedrate Rapids: 1500)
(Tool: 9 -> Feedrate Rapids: 1500)
(Tool: 10 -> Feedrate Rapids: 1500)
(Tool: 11 -> Feedrate Rapids: 1500)
(Tool: 12 -> Feedrate Rapids: 1500)
(Tool: 13 -> Feedrate Rapids: 1500)
(Tool: 14 -> Feedrate Rapids: 1500)
(Tool: 15 -> Feedrate Rapids: 1500)
(Tool: 16 -> Feedrate Rapids: 1500)
(Tool: 17 -> Feedrate Rapids: 1500)
(Tool: 18 -> Feedrate Rapids: 1500)
(Tool: 19 -> Feedrate Rapids: 1500)
(Tool: 20 -> Feedrate Rapids: 1500)
(Tool: 21 -> Feedrate Rapids: 1500)

(Z_CUT: )
(Tool: 1 -> Z_Cut: -2.2)
(Tool: 2 -> Z_Cut: -2.2)
(Tool: 3 -> Z_Cut: -2.2)
(Tool: 4 -> Z_Cut: -2.2)
(Tool: 5 -> Z_Cut: -2.2)
(Tool: 6 -> Z_Cut: -2.2)
(Tool: 7 -> Z_Cut: -2.2)
(Tool: 8 -> Z_Cut: -2.2)
(Tool: 9 -> Z_Cut: -2.2)
(Tool: 10 -> Z_Cut: -2.2)
(Tool: 11 -> Z_Cut: -2.2)
(Tool: 12 -> Z_Cut: -2.2)
(Tool: 13 -> Z_Cut: -2.2)
(Tool: 14 -> Z_Cut: -2.2)
(Tool: 15 -> Z_Cut: -2.2)
(Tool: 16 -> Z_Cut: -2.2)
(Tool: 17 -> Z_Cut: -2.2)
(Tool: 18 -> Z_Cut: -2.2)
(Tool: 19 -> Z_Cut: -2.2)
(Tool: 20 -> Z_Cut: -2.2)
(Tool: 21 -> Z_Cut: -2.2)

(Tools Offset: )
(Tool: 12 -> Offset Z: 0.0)

(DEPTH_PER_CUT: )
(Tool: 1 -> DeptPerCut: 1.1)
(Tool: 2 -> DeptPerCut: 1.1)
(Tool: 3 -> DeptPerCut: 1.1)
(Tool: 4 -> DeptPerCut: 1.1)
(Tool: 5 -> DeptPerCut: 1.1)
(Tool: 6 -> DeptPerCut: 1.1)
(Tool: 7 -> DeptPerCut: 1.1)
(Tool: 8 -> DeptPerCut: 1.1)
(Tool: 9 -> DeptPerCut: 1.1)
(Tool: 10 -> DeptPerCut: 1.1)
(Tool: 11 -> DeptPerCut: 1.1)
(Tool: 12 -> DeptPerCut: 1.1)
(Tool: 13 -> DeptPerCut: 1.1)
(Tool: 14 -> DeptPerCut: 1.1)
(Tool: 15 -> DeptPerCut: 1.1)
(Tool: 16 -> DeptPerCut: 1.1)
(Tool: 17 -> DeptPerCut: 1.1)
(Tool: 18 -> DeptPerCut: 1.1)
(Tool: 19 -> DeptPerCut: 1.1)
(Tool: 20 -> DeptPerCut: 1.1)
(Tool: 21 -> DeptPerCut: 1.1)

(Z_MOVE: )
(Tool: 1 -> Z_Move: 2)
(Tool: 2 -> Z_Move: 2)
(Tool: 3 -> Z_Move: 2)
(Tool: 4 -> Z_Move: 2)
(Tool: 5 -> Z_Move: 2)
(Tool: 6 -> Z_Move: 2)
(Tool: 7 -> Z_Move: 2)
(Tool: 8 -> Z_Move: 2)
(Tool: 9 -> Z_Move: 2)
(Tool: 10 -> Z_Move: 2)
(Tool: 11 -> Z_Move: 2)
(Tool: 12 -> Z_Move: 2)
(Tool: 13 -> Z_Move: 2)
(Tool: 14 -> Z_Move: 2)
(Tool: 15 -> Z_Move: 2)
(Tool: 16 -> Z_Move: 2)
(Tool: 17 -> Z_Move: 2)
(Tool: 18 -> Z_Move: 2)
(Tool: 19 -> Z_Move: 2)
(Tool: 20 -> Z_Move: 2)
(Tool: 21 -> Z_Move: 2)

(Z Toolchange: 20.0 mm)
(X,Y Toolchange: 0.00000000, 0.00000000 mm)
(Z Start: None mm)
(Z End: 20.0 mm)
(X,Y End: 0.00000000, 0.00000000 mm)
(Steps per circle: 64)
(Preprocessor Excellon: Default_no_M6)

(X range:     1.798 ...    99.250  mm)
(Y range:     0.850 ...    58.600  mm)

(Spindle Speed: 25 RPM)
G21
G90
G94

G01 F600

M5
G00 Z20.000
T11
G00 X0.000 Y0.000                
(MSG, Change to Tool Dia = 1.20000000 ||| Total drills for tool T11 = 2)
M0
G00 Z20.000
        
G01 F600
M03 S25
G00 X2.635 Y56.920
G01 Z-1.100
G01 Z0
G00 Z2.000
G01 Z-2.200
G01 Z0
G00 Z2.000
G00 X6.815 Y57.100
G01 Z-1.100
G01 Z0
G00 Z2.000
G01 Z-2.200
G01 Z0
G00 Z2.000
G00 X6.815 Y48.100
G01 Z-1.100
G01 Z0
G00 Z2.000
G01 Z-2.200
G01 Z0
G00 Z2.000
G00 X37.520 Y5.600
G01 Z-1.100
G01 Z0
G00 Z2.000
G01 Z-2.200
G01 Z0
G00 Z2.000
G00 X34.020 Y5.600
G01 Z-1.100
G01 Z0
G00 Z2.000
G01 Z-2.200
G01 Z0
G00 Z2.000
G00 X4.200 Y22.650
G01 Z-1.100
G01 Z0
G00 Z2.000
G01 Z-2.200
G01 Z0
G00 Z2.000
G00 X4.200 Y30.650
G01 Z-1.100
G01 Z0
G00 Z2.000
G01 Z-2.200
G01 Z0
G00 Z2.000
G00 X2.635 Y48.280
G01 Z-1.100
G01 Z0
G00 Z2.000
G01 Z-2.200
G01 Z0
G00 Z2.000
M05
G00 Z20
G00 X0.0 Y0.0


