(G-CODE GENERATED BY FLATCAM v8.994 - www.flatcam.org - Version Date: 2020/11/7)

(Name: HYB_ESPA-Edge_Cuts.gbr_cutout_cnc)
(Type: G-code from Geometry)
(Units: MM)

(Created on Wednesday, 30 April 2025 at 21:46)

(This preprocessor is the default preprocessor used by FlatCAM.)
(It is made to work with MACH3 compatible motion controllers.)

(TOOL DIAMETER: 3.0 mm)
(Feedrate_XY: 420.0 mm/min)
(Feedrate_Z: 160.0 mm/min)
(Feedrate rapids 1500.0 mm/min)

(Z_Cut: -2.2 mm)
(DepthPerCut: 1.1 mm <=>2 passes)
(Z_Move: 2.0 mm)
(Z Start: None mm)
(Z End: 10.0 mm)
(X,Y End: 0.00000000, 0.00000000 mm)
(Steps per circle: 64)
(Preprocessor Geometry: Default_no_M6)

(X range:    -1.650 ...   101.650  mm)
(Y range:    -1.650 ...    61.650  mm)

(Spindle Speed: 25.0 RPM)
G21
G90
G94

G01 F420

M5
G00 Z3.000
G00 X0.000 Y0.000
T1
(MSG, Change to Tool Dia = 3.00000000)
M0
G00 Z3.000
        
M03 S25.0
G01 F420
G00 X21.975 Y-1.650
G01 F160
G01 Z-1.100
G01 F420
G01 X3.800 Y-1.650
G01 X3.761 Y-1.650
G01 X3.719 Y-1.648
G01 X3.347 Y-1.630
G01 X3.263 Y-1.623
G01 X3.185 Y-1.614
G01 X2.817 Y-1.559
G01 X2.734 Y-1.545
G01 X2.658 Y-1.528
G01 X2.296 Y-1.437
G01 X2.216 Y-1.415
G01 X2.141 Y-1.390
G01 X1.790 Y-1.264
G01 X1.712 Y-1.234
G01 X1.640 Y-1.202
G01 X1.303 Y-1.043
G01 X1.229 Y-1.005
G01 X1.160 Y-0.967
G01 X0.841 Y-0.775
G01 X0.770 Y-0.730
G01 X0.706 Y-0.685
G01 X0.406 Y-0.463
G01 X0.341 Y-0.411
G01 X0.281 Y-0.360
G01 X0.005 Y-0.110
G01 X-0.055 Y-0.052
G01 X-0.110 Y0.005
G01 X-0.360 Y0.281
G01 X-0.414 Y0.344
G01 X-0.463 Y0.406
G01 X-0.685 Y0.706
G01 X-0.733 Y0.774
G01 X-0.775 Y0.841
G01 X-0.967 Y1.160
G01 X-1.008 Y1.233
G01 X-1.043 Y1.303
G01 X-1.202 Y1.640
G01 X-1.236 Y1.717
G01 X-1.264 Y1.790
G01 X-1.390 Y2.141
G01 X-1.416 Y2.220
G01 X-1.437 Y2.296
G01 X-1.528 Y2.658
G01 X-1.546 Y2.739
G01 X-1.559 Y2.817
G01 X-1.614 Y3.185
G01 X-1.624 Y3.268
G01 X-1.630 Y3.347
G01 X-1.648 Y3.719
G01 X-1.650 Y3.779
G01 X-1.650 Y3.779
G01 X-1.650 Y3.779
G01 X-1.650 Y3.800
G01 X-1.650 Y56.200
G01 X-1.650 Y56.239
G01 X-1.648 Y56.281
G01 X-1.630 Y56.653
G01 X-1.624 Y56.732
G01 X-1.614 Y56.815
G01 X-1.559 Y57.183
G01 X-1.545 Y57.266
G01 X-1.528 Y57.342
G01 X-1.437 Y57.704
G01 X-1.415 Y57.784
G01 X-1.390 Y57.859
G01 X-1.264 Y58.210
G01 X-1.234 Y58.288
G01 X-1.202 Y58.360
G01 X-1.043 Y58.697
G01 X-1.005 Y58.771
G01 X-0.967 Y58.840
G01 X-0.775 Y59.159
G01 X-0.730 Y59.230
G01 X-0.685 Y59.294
G01 X-0.463 Y59.594
G01 X-0.414 Y59.656
G01 X-0.360 Y59.719
G01 X-0.110 Y59.995
G01 X-0.055 Y60.052
G01 X0.005 Y60.110
G01 X0.281 Y60.360
G01 X0.344 Y60.414
G01 X0.406 Y60.463
G01 X0.706 Y60.685
G01 X0.774 Y60.733
G01 X0.841 Y60.775
G01 X1.160 Y60.967
G01 X1.233 Y61.008
G01 X1.303 Y61.043
G01 X1.640 Y61.202
G01 X1.717 Y61.236
G01 X1.790 Y61.264
G01 X2.141 Y61.390
G01 X2.216 Y61.415
G01 X2.296 Y61.437
G01 X2.658 Y61.528
G01 X2.739 Y61.546
G01 X2.817 Y61.559
G01 X3.185 Y61.614
G01 X3.263 Y61.623
G01 X3.347 Y61.630
G01 X3.719 Y61.648
G01 X3.758 Y61.649
G01 X3.800 Y61.650
G01 X21.975 Y61.650
G00 X21.975 Y61.650
G01 F160
G01 Z-2.200
G01 F420
G01 X3.800 Y61.650
G01 X3.758 Y61.649
G01 X3.719 Y61.648
G01 X3.347 Y61.630
G01 X3.263 Y61.623
G01 X3.185 Y61.614
G01 X2.817 Y61.559
G01 X2.739 Y61.546
G01 X2.658 Y61.528
G01 X2.296 Y61.437
G01 X2.216 Y61.415
G01 X2.141 Y61.390
G01 X1.790 Y61.264
G01 X1.717 Y61.236
G01 X1.640 Y61.202
G01 X1.303 Y61.043
G01 X1.233 Y61.008
G01 X1.160 Y60.967
G01 X0.841 Y60.775
G01 X0.774 Y60.733
G01 X0.706 Y60.685
G01 X0.406 Y60.463
G01 X0.344 Y60.414
G01 X0.281 Y60.360
G01 X0.005 Y60.110
G01 X-0.055 Y60.052
G01 X-0.110 Y59.995
G01 X-0.360 Y59.719
G01 X-0.414 Y59.656
G01 X-0.463 Y59.594
G01 X-0.685 Y59.294
G01 X-0.730 Y59.230
G01 X-0.775 Y59.159
G01 X-0.967 Y58.840
G01 X-1.005 Y58.771
G01 X-1.043 Y58.697
G01 X-1.202 Y58.360
G01 X-1.234 Y58.288
G01 X-1.264 Y58.210
G01 X-1.390 Y57.859
G01 X-1.415 Y57.784
G01 X-1.437 Y57.704
G01 X-1.528 Y57.342
G01 X-1.545 Y57.266
G01 X-1.559 Y57.183
G01 X-1.614 Y56.815
G01 X-1.624 Y56.732
G01 X-1.630 Y56.653
G01 X-1.648 Y56.281
G01 X-1.650 Y56.239
G01 X-1.650 Y56.200
G01 X-1.650 Y3.800
G01 X-1.650 Y3.779
G01 X-1.650 Y3.779
G01 X-1.650 Y3.779
G01 X-1.648 Y3.719
G01 X-1.630 Y3.347
G01 X-1.624 Y3.268
G01 X-1.614 Y3.185
G01 X-1.559 Y2.817
G01 X-1.546 Y2.739
G01 X-1.528 Y2.658
G01 X-1.437 Y2.296
G01 X-1.416 Y2.220
G01 X-1.390 Y2.141
G01 X-1.264 Y1.790
G01 X-1.236 Y1.717
G01 X-1.202 Y1.640
G01 X-1.043 Y1.303
G01 X-1.008 Y1.233
G01 X-0.967 Y1.160
G01 X-0.775 Y0.841
G01 X-0.733 Y0.774
G01 X-0.685 Y0.706
G01 X-0.463 Y0.406
G01 X-0.414 Y0.344
G01 X-0.360 Y0.281
G01 X-0.110 Y0.005
G01 X-0.055 Y-0.052
G01 X0.005 Y-0.110
G01 X0.281 Y-0.360
G01 X0.341 Y-0.411
G01 X0.406 Y-0.463
G01 X0.706 Y-0.685
G01 X0.770 Y-0.730
G01 X0.841 Y-0.775
G01 X1.160 Y-0.967
G01 X1.229 Y-1.005
G01 X1.303 Y-1.043
G01 X1.640 Y-1.202
G01 X1.712 Y-1.234
G01 X1.790 Y-1.264
G01 X2.141 Y-1.390
G01 X2.216 Y-1.415
G01 X2.296 Y-1.437
G01 X2.658 Y-1.528
G01 X2.734 Y-1.545
G01 X2.817 Y-1.559
G01 X3.185 Y-1.614
G01 X3.263 Y-1.623
G01 X3.347 Y-1.630
G01 X3.719 Y-1.648
G01 X3.761 Y-1.650
G01 X3.800 Y-1.650
G01 X21.975 Y-1.650
G00 Z2.000
G00 X26.475 Y61.650
G01 F160
G01 Z-1.100
G01 F420
G01 X73.725 Y61.650
G00 X73.725 Y61.650
G01 F160
G01 Z-2.200
G01 F420
G01 X26.475 Y61.650
G00 Z2.000
G00 X78.225 Y61.650
G01 F160
G01 Z-1.100
G01 F420
G01 X96.200 Y61.650
G01 X96.237 Y61.650
G01 X96.276 Y61.648
G01 X96.627 Y61.632
G01 X96.701 Y61.627
G01 X96.779 Y61.618
G01 X97.126 Y61.569
G01 X97.204 Y61.557
G01 X97.276 Y61.541
G01 X97.618 Y61.461
G01 X97.694 Y61.441
G01 X97.764 Y61.419
G01 X98.097 Y61.308
G01 X98.171 Y61.281
G01 X98.239 Y61.253
G01 X98.560 Y61.111
G01 X98.631 Y61.078
G01 X98.697 Y61.043
G01 X99.003 Y60.872
G01 X99.071 Y60.832
G01 X99.133 Y60.792
G01 X99.423 Y60.594
G01 X99.486 Y60.548
G01 X99.544 Y60.502
G01 X99.814 Y60.278
G01 X99.873 Y60.226
G01 X99.927 Y60.175
G01 X100.175 Y59.927
G01 X100.229 Y59.870
G01 X100.278 Y59.814
G01 X100.502 Y59.544
G01 X100.551 Y59.482
G01 X100.594 Y59.423
G01 X100.792 Y59.133
G01 X100.835 Y59.067
G01 X100.872 Y59.003
G01 X101.043 Y58.697
G01 X101.080 Y58.627
G01 X101.111 Y58.560
G01 X101.253 Y58.239
G01 X101.281 Y58.171
G01 X101.308 Y58.097
G01 X101.419 Y57.764
G01 X101.441 Y57.694
G01 X101.461 Y57.618
G01 X101.541 Y57.276
G01 X101.557 Y57.204
G01 X101.569 Y57.126
G01 X101.618 Y56.779
G01 X101.627 Y56.705
G01 X101.632 Y56.627
G01 X101.648 Y56.276
G01 X101.650 Y56.239
G01 X101.650 Y56.200
G01 X101.650 Y3.800
G01 X101.650 Y3.763
G01 X101.648 Y3.724
G01 X101.632 Y3.373
G01 X101.627 Y3.299
G01 X101.618 Y3.221
G01 X101.569 Y2.874
G01 X101.558 Y2.801
G01 X101.541 Y2.724
G01 X101.461 Y2.382
G01 X101.443 Y2.311
G01 X101.419 Y2.236
G01 X101.308 Y1.903
G01 X101.281 Y1.829
G01 X101.253 Y1.761
G01 X101.111 Y1.440
G01 X101.078 Y1.369
G01 X101.043 Y1.303
G01 X100.872 Y0.997
G01 X100.832 Y0.929
G01 X100.792 Y0.867
G01 X100.594 Y0.577
G01 X100.548 Y0.514
G01 X100.502 Y0.456
G01 X100.278 Y0.186
G01 X100.226 Y0.127
G01 X100.175 Y0.073
G01 X99.927 Y-0.175
G01 X99.870 Y-0.229
G01 X99.814 Y-0.278
G01 X99.544 Y-0.502
G01 X99.482 Y-0.551
G01 X99.423 Y-0.594
G01 X99.133 Y-0.792
G01 X99.067 Y-0.835
G01 X99.003 Y-0.872
G01 X98.697 Y-1.043
G01 X98.627 Y-1.080
G01 X98.560 Y-1.111
G01 X98.239 Y-1.253
G01 X98.171 Y-1.281
G01 X98.097 Y-1.308
G01 X97.764 Y-1.419
G01 X97.694 Y-1.441
G01 X97.618 Y-1.461
G01 X97.276 Y-1.541
G01 X97.199 Y-1.558
G01 X97.126 Y-1.569
G01 X96.779 Y-1.618
G01 X96.705 Y-1.627
G01 X96.627 Y-1.632
G01 X96.276 Y-1.648
G01 X96.239 Y-1.650
G01 X96.200 Y-1.650
G01 X78.225 Y-1.650
G00 X78.225 Y-1.650
G01 F160
G01 Z-2.200
G01 F420
G01 X96.200 Y-1.650
G01 X96.239 Y-1.650
G01 X96.276 Y-1.648
G01 X96.627 Y-1.632
G01 X96.705 Y-1.627
G01 X96.779 Y-1.618
G01 X97.126 Y-1.569
G01 X97.199 Y-1.558
G01 X97.276 Y-1.541
G01 X97.618 Y-1.461
G01 X97.694 Y-1.441
G01 X97.764 Y-1.419
G01 X98.097 Y-1.308
G01 X98.171 Y-1.281
G01 X98.239 Y-1.253
G01 X98.560 Y-1.111
G01 X98.627 Y-1.080
G01 X98.697 Y-1.043
G01 X99.003 Y-0.872
G01 X99.067 Y-0.835
G01 X99.133 Y-0.792
G01 X99.423 Y-0.594
G01 X99.482 Y-0.551
G01 X99.544 Y-0.502
G01 X99.814 Y-0.278
G01 X99.870 Y-0.229
G01 X99.927 Y-0.175
G01 X100.175 Y0.073
G01 X100.226 Y0.127
G01 X100.278 Y0.186
G01 X100.502 Y0.456
G01 X100.548 Y0.514
G01 X100.594 Y0.577
G01 X100.792 Y0.867
G01 X100.832 Y0.929
G01 X100.872 Y0.997
G01 X101.043 Y1.303
G01 X101.078 Y1.369
G01 X101.111 Y1.440
G01 X101.253 Y1.761
G01 X101.281 Y1.829
G01 X101.308 Y1.903
G01 X101.419 Y2.236
G01 X101.443 Y2.311
G01 X101.461 Y2.382
G01 X101.541 Y2.724
G01 X101.558 Y2.801
G01 X101.569 Y2.874
G01 X101.618 Y3.221
G01 X101.627 Y3.299
G01 X101.632 Y3.373
G01 X101.648 Y3.724
G01 X101.650 Y3.763
G01 X101.650 Y3.800
G01 X101.650 Y56.200
G01 X101.650 Y56.239
G01 X101.648 Y56.276
G01 X101.632 Y56.627
G01 X101.627 Y56.705
G01 X101.618 Y56.779
G01 X101.569 Y57.126
G01 X101.557 Y57.204
G01 X101.541 Y57.276
G01 X101.461 Y57.618
G01 X101.441 Y57.694
G01 X101.419 Y57.764
G01 X101.308 Y58.097
G01 X101.281 Y58.171
G01 X101.253 Y58.239
G01 X101.111 Y58.560
G01 X101.080 Y58.627
G01 X101.043 Y58.697
G01 X100.872 Y59.003
G01 X100.835 Y59.067
G01 X100.792 Y59.133
G01 X100.594 Y59.423
G01 X100.551 Y59.482
G01 X100.502 Y59.544
G01 X100.278 Y59.814
G01 X100.229 Y59.870
G01 X100.175 Y59.927
G01 X99.927 Y60.175
G01 X99.873 Y60.226
G01 X99.814 Y60.278
G01 X99.544 Y60.502
G01 X99.486 Y60.548
G01 X99.423 Y60.594
G01 X99.133 Y60.792
G01 X99.071 Y60.832
G01 X99.003 Y60.872
G01 X98.697 Y61.043
G01 X98.631 Y61.078
G01 X98.560 Y61.111
G01 X98.239 Y61.253
G01 X98.171 Y61.281
G01 X98.097 Y61.308
G01 X97.764 Y61.419
G01 X97.694 Y61.441
G01 X97.618 Y61.461
G01 X97.276 Y61.541
G01 X97.204 Y61.557
G01 X97.126 Y61.569
G01 X96.779 Y61.618
G01 X96.701 Y61.627
G01 X96.627 Y61.632
G01 X96.276 Y61.648
G01 X96.237 Y61.650
G01 X96.200 Y61.650
G01 X78.225 Y61.650
G00 Z2.000
G00 X73.725 Y-1.650
G01 F160
G01 Z-1.100
G01 F420
G01 X26.475 Y-1.650
G00 X26.475 Y-1.650
G01 F160
G01 Z-2.200
G01 F420
G01 X73.725 Y-1.650
G00 Z2.000
G01 F420

M5
G00 Z3.000
G00 X0.000 Y0.000
T9999
(MSG, Change to Tool Dia = 3.00000000)
M0
G00 Z3.000
        
M03 S25.0
G01 F420
G00 X21.975 Y-1.650
G01 F160
G01 Z-1.100
G01 F420
G01 X26.475 Y-1.650
G00 Z2.000
G00 X73.725 Y-1.650
G01 F160
G01 Z-1.100
G01 F420
G01 X78.225 Y-1.650
G00 Z2.000
G00 X73.725 Y61.650
G01 F160
G01 Z-1.100
G01 F420
G01 X78.225 Y61.650
G00 Z2.000
G00 X26.475 Y61.650
G01 F160
G01 Z-1.100
G01 F420
G01 X21.975 Y61.650
G00 Z2.000
M05
G00 Z2.000
G00 Z10
G00 X0.0 Y0.0


