(G-CODE GENERATED BY FLATCAM v8.994 - www.flatcam.org - Version Date: 2020/11/7)

(Name: HYB_ESPA.drl_cnc)
(Type: G-code from Geometry)
(Units: MM)

(Created on Wednesday, 30 April 2025 at 21:40)

(This preprocessor is the default preprocessor used by FlatCAM.)
(It is made to work with MACH3 compatible motion controllers.)


(TOOLS DIAMETER: )
(Tool: 1 -> Dia: 0.8)
(Tool: 2 -> Dia: 0.8)
(Tool: 3 -> Dia: 0.8)
(Tool: 4 -> Dia: 0.8)
(Tool: 5 -> Dia: 0.8)
(Tool: 6 -> Dia: 0.8)
(Tool: 7 -> Dia: 0.9)
(Tool: 8 -> Dia: 0.95)
(Tool: 9 -> Dia: 0.99)
(Tool: 10 -> Dia: 1.0)
(Tool: 11 -> Dia: 1.2)
(Tool: 12 -> Dia: 1.2)
(Tool: 13 -> Dia: 1.3)
(Tool: 14 -> Dia: 1.4)
(Tool: 15 -> Dia: 1.5)
(Tool: 16 -> Dia: 3.2)
(Tool: 17 -> Dia: 0.8)
(Tool: 18 -> Dia: 0.8)
(Tool: 19 -> Dia: 0.8)
(Tool: 20 -> Dia: 1.2)
(Tool: 21 -> Dia: 1.2)

(FEEDRATE Z: )
(Tool: 1 -> Feedrate: 600.0)
(Tool: 2 -> Feedrate: 600.0)
(Tool: 3 -> Feedrate: 600.0)
(Tool: 4 -> Feedrate: 600.0)
(Tool: 5 -> Feedrate: 600.0)
(Tool: 6 -> Feedrate: 600.0)
(Tool: 7 -> Feedrate: 600.0)
(Tool: 8 -> Feedrate: 600.0)
(Tool: 9 -> Feedrate: 600.0)
(Tool: 10 -> Feedrate: 600.0)
(Tool: 11 -> Feedrate: 600.0)
(Tool: 12 -> Feedrate: 600.0)
(Tool: 13 -> Feedrate: 600.0)
(Tool: 14 -> Feedrate: 600.0)
(Tool: 15 -> Feedrate: 600.0)
(Tool: 16 -> Feedrate: 600.0)
(Tool: 17 -> Feedrate: 600.0)
(Tool: 18 -> Feedrate: 600.0)
(Tool: 19 -> Feedrate: 600.0)
(Tool: 20 -> Feedrate: 600.0)
(Tool: 21 -> Feedrate: 600.0)

(FEEDRATE RAPIDS: )
(Tool: 1 -> Feedrate Rapids: 1500)
(Tool: 2 -> Feedrate Rapids: 1500)
(Tool: 3 -> Feedrate Rapids: 1500)
(Tool: 4 -> Feedrate Rapids: 1500)
(Tool: 5 -> Feedrate Rapids: 1500)
(Tool: 6 -> Feedrate Rapids: 1500)
(Tool: 7 -> Feedrate Rapids: 1500)
(Tool: 8 -> Feedrate Rapids: 1500)
(Tool: 9 -> Feedrate Rapids: 1500)
(Tool: 10 -> Feedrate Rapids: 1500)
(Tool: 11 -> Feedrate Rapids: 1500)
(Tool: 12 -> Feedrate Rapids: 1500)
(Tool: 13 -> Feedrate Rapids: 1500)
(Tool: 14 -> Feedrate Rapids: 1500)
(Tool: 15 -> Feedrate Rapids: 1500)
(Tool: 16 -> Feedrate Rapids: 1500)
(Tool: 17 -> Feedrate Rapids: 1500)
(Tool: 18 -> Feedrate Rapids: 1500)
(Tool: 19 -> Feedrate Rapids: 1500)
(Tool: 20 -> Feedrate Rapids: 1500)
(Tool: 21 -> Feedrate Rapids: 1500)

(Z_CUT: )
(Tool: 1 -> Z_Cut: -2.2)
(Tool: 2 -> Z_Cut: -2.2)
(Tool: 3 -> Z_Cut: -2.2)
(Tool: 4 -> Z_Cut: -2.2)
(Tool: 5 -> Z_Cut: -2.2)
(Tool: 6 -> Z_Cut: -2.2)
(Tool: 7 -> Z_Cut: -2.2)
(Tool: 8 -> Z_Cut: -2.2)
(Tool: 9 -> Z_Cut: -2.2)
(Tool: 10 -> Z_Cut: -2.2)
(Tool: 11 -> Z_Cut: -2.2)
(Tool: 12 -> Z_Cut: -2.2)
(Tool: 13 -> Z_Cut: -2.2)
(Tool: 14 -> Z_Cut: -2.2)
(Tool: 15 -> Z_Cut: -2.2)
(Tool: 16 -> Z_Cut: -2.2)
(Tool: 17 -> Z_Cut: -2.2)
(Tool: 18 -> Z_Cut: -2.2)
(Tool: 19 -> Z_Cut: -2.2)
(Tool: 20 -> Z_Cut: -2.2)
(Tool: 21 -> Z_Cut: -2.2)

(Tools Offset: )
(Tool: 3 -> Offset Z: 0.0)

(Z_MOVE: )
(Tool: 1 -> Z_Move: 2)
(Tool: 2 -> Z_Move: 2)
(Tool: 3 -> Z_Move: 2)
(Tool: 4 -> Z_Move: 2)
(Tool: 5 -> Z_Move: 2)
(Tool: 6 -> Z_Move: 2)
(Tool: 7 -> Z_Move: 2)
(Tool: 8 -> Z_Move: 2)
(Tool: 9 -> Z_Move: 2)
(Tool: 10 -> Z_Move: 2)
(Tool: 11 -> Z_Move: 2)
(Tool: 12 -> Z_Move: 2)
(Tool: 13 -> Z_Move: 2)
(Tool: 14 -> Z_Move: 2)
(Tool: 15 -> Z_Move: 2)
(Tool: 16 -> Z_Move: 2)
(Tool: 17 -> Z_Move: 2)
(Tool: 18 -> Z_Move: 2)
(Tool: 19 -> Z_Move: 2)
(Tool: 20 -> Z_Move: 2)
(Tool: 21 -> Z_Move: 2)

(Z Toolchange: 20.0 mm)
(X,Y Toolchange: 0.00000000, 0.00000000 mm)
(Z Start: None mm)
(Z End: 20.0 mm)
(X,Y End: 0.00000000, 0.00000000 mm)
(Steps per circle: 64)
(Preprocessor Excellon: Default_no_M6)

(X range:     1.798 ...    99.250  mm)
(Y range:     0.850 ...    58.600  mm)

(Spindle Speed: 25 RPM)
G21
G90
G94

G01 F600

M5
G00 Z20.000
T1
G00 X0.000 Y0.000                
(MSG, Change to Tool Dia = 0.80000000 ||| Total drills for tool T1 = 2)
M0
G00 Z20.000
        
G01 F600
M03 S25
G00 X2.198 Y14.403
G01 Z-2.200
G01 Z0
G00 Z2.000
G00 X3.650 Y15.663
G01 Z-2.200
G01 Z0
G00 Z2.000
G00 X21.073 Y20.171
G01 Z-2.200
G01 Z0
G00 Z2.000
G00 X36.400 Y21.300
G01 Z-2.200
G01 Z0
G00 Z2.000
G00 X36.500 Y22.900
G01 Z-2.200
G01 Z0
G00 Z2.000
G00 X37.800 Y22.900
G01 Z-2.200
G01 Z0
G00 Z2.000
G00 X31.996 Y30.580
G01 Z-2.200
G01 Z0
G00 Z2.000
G00 X29.513 Y33.414
G01 Z-2.200
G01 Z0
G00 Z2.000
G00 X28.099 Y34.578
G01 Z-2.200
G01 Z0
G00 Z2.000
G00 X26.339 Y34.584
G01 Z-2.200
G01 Z0
G00 Z2.000
G00 X23.945 Y36.546
G01 Z-2.200
G01 Z0
G00 Z2.000
G00 X22.192 Y36.702
G01 Z-2.200
G01 Z0
G00 Z2.000
G00 X20.340 Y38.600
G01 Z-2.200
G01 Z0
G00 Z2.000
G00 X19.100 Y40.300
G01 Z-2.200
G01 Z0
G00 Z2.000
G00 X15.059 Y37.412
G01 Z-2.200
G01 Z0
G00 Z2.000
G00 X11.092 Y36.919
G01 Z-2.200
G01 Z0
G00 Z2.000
G00 X10.151 Y38.406
G01 Z-2.200
G01 Z0
G00 Z2.000
G00 X6.889 Y42.202
G01 Z-2.200
G01 Z0
G00 Z2.000
G00 X6.588 Y44.760
G01 Z-2.200
G01 Z0
G00 Z2.000
G00 X12.351 Y48.180
G01 Z-2.200
G01 Z0
G00 Z2.000
G00 X8.962 Y47.451
G01 Z-2.200
G01 Z0
G00 Z2.000
G00 X6.215 Y49.710
G01 Z-2.200
G01 Z0
G00 Z2.000
G00 X6.215 Y55.490
G01 Z-2.200
G01 Z0
G00 Z2.000
G00 X9.133 Y57.200
G01 Z-2.200
G01 Z0
G00 Z2.000
G00 X17.540 Y57.200
G01 Z-2.200
G01 Z0
G00 Z2.000
G00 X19.000 Y47.000
G01 Z-2.200
G01 Z0
G00 Z2.000
G00 X19.000 Y44.500
G01 Z-2.200
G01 Z0
G00 Z2.000
G00 X20.961 Y41.951
G01 Z-2.200
G01 Z0
G00 Z2.000
G00 X23.066 Y44.066
G01 Z-2.200
G01 Z0
G00 Z2.000
G00 X26.415 Y47.208
G01 Z-2.200
G01 Z0
G00 Z2.000
G00 X27.472 Y45.463
G01 Z-2.200
G01 Z0
G00 Z2.000
G00 X29.200 Y45.130
G01 Z-2.200
G01 Z0
G00 Z2.000
G00 X32.345 Y42.840
G01 Z-2.200
G01 Z0
G00 Z2.000
G00 X29.887 Y36.220
G01 Z-2.200
G01 Z0
G00 Z2.000
G00 X31.247 Y35.103
G01 Z-2.200
G01 Z0
G00 Z2.000
G00 X32.994 Y35.648
G01 Z-2.200
G01 Z0
G00 Z2.000
G00 X34.788 Y33.048
G01 Z-2.200
G01 Z0
G00 Z2.000
G00 X33.278 Y31.845
G01 Z-2.200
G01 Z0
G00 Z2.000
G00 X34.502 Y30.580
G01 Z-2.200
G01 Z0
G00 Z2.000
G00 X36.431 Y32.416
G01 Z-2.200
G01 Z0
G00 Z2.000
G00 X38.190 Y32.446
G01 Z-2.200
G01 Z0
G00 Z2.000
G00 X39.842 Y31.816
G01 Z-2.200
G01 Z0
G00 Z2.000
G00 X41.740 Y38.600
G01 Z-2.200
G01 Z0
G00 Z2.000
G00 X35.580 Y38.600
G01 Z-2.200
G01 Z0
G00 Z2.000
G00 X34.600 Y40.800
G01 Z-2.200
G01 Z0
G00 Z2.000
G00 X35.900 Y40.800
G01 Z-2.200
G01 Z0
G00 Z2.000
G00 X37.100 Y40.800
G01 Z-2.200
G01 Z0
G00 Z2.000
G00 X40.300 Y47.000
G01 Z-2.200
G01 Z0
G00 Z2.000
G00 X40.300 Y44.500
G01 Z-2.200
G01 Z0
G00 Z2.000
G00 X43.900 Y43.473
G01 Z-2.200
G01 Z0
G00 Z2.000
G00 X45.100 Y43.400
G01 Z-2.200
G01 Z0
G00 Z2.000
G00 X46.300 Y43.400
G01 Z-2.200
G01 Z0
G00 Z2.000
G00 X47.300 Y46.500
G01 Z-2.200
G01 Z0
G00 Z2.000
G00 X49.001 Y45.635
G01 Z-2.200
G01 Z0
G00 Z2.000
G00 X50.755 Y45.485
G01 Z-2.200
G01 Z0
G00 Z2.000
G00 X61.600 Y47.000
G01 Z-2.200
G01 Z0
G00 Z2.000
G00 X61.600 Y44.500
G01 Z-2.200
G01 Z0
G00 Z2.000
G00 X65.200 Y43.300
G01 Z-2.200
G01 Z0
G00 Z2.000
G00 X67.500 Y47.000
G01 Z-2.200
G01 Z0
G00 Z2.000
G00 X68.900 Y45.800
G01 Z-2.200
G01 Z0
G00 Z2.000
G00 X70.900 Y45.400
G01 Z-2.200
G01 Z0
G00 Z2.000
G00 X76.900 Y41.410
G01 Z-2.200
G01 Z0
G00 Z2.000
G00 X77.880 Y38.600
G01 Z-2.200
G01 Z0
G00 Z2.000
G00 X79.900 Y42.200
G01 Z-2.200
G01 Z0
G00 Z2.000
G00 X82.520 Y44.500
G01 Z-2.200
G01 Z0
G00 Z2.000
G00 X82.520 Y47.000
G01 Z-2.200
G01 Z0
G00 Z2.000
G00 X84.300 Y41.500
G01 Z-2.200
G01 Z0
G00 Z2.000
G00 X83.560 Y38.600
G01 Z-2.200
G01 Z0
G00 Z2.000
G00 X86.944 Y43.740
G01 Z-2.200
G01 Z0
G00 Z2.000
G00 X88.227 Y42.536
G01 Z-2.200
G01 Z0
G00 Z2.000
G00 X90.600 Y41.700
G01 Z-2.200
G01 Z0
G00 Z2.000
G00 X91.300 Y43.400
G01 Z-2.200
G01 Z0
G00 Z2.000
G00 X93.200 Y43.900
G01 Z-2.200
G01 Z0
G00 Z2.000
G00 X97.715 Y53.085
G01 Z-2.200
G01 Z0
G00 Z2.000
G00 X98.800 Y38.600
G01 Z-2.200
G01 Z0
G00 Z2.000
G00 X98.468 Y22.468
G01 Z-2.200
G01 Z0
G00 Z2.000
G00 X94.500 Y22.400
G01 Z-2.200
G01 Z0
G00 Z2.000
G00 X94.200 Y12.100
G01 Z-2.200
G01 Z0
G00 Z2.000
G00 X98.750 Y10.215
G01 Z-2.200
G01 Z0
G00 Z2.000
G00 X91.200 Y6.240
G01 Z-2.200
G01 Z0
G00 Z2.000
G00 X91.200 Y4.480
G01 Z-2.200
G01 Z0
G00 Z2.000
G00 X91.400 Y2.720
G01 Z-2.200
G01 Z0
G00 Z2.000
G00 X76.600 Y4.480
G01 Z-2.200
G01 Z0
G00 Z2.000
G00 X76.600 Y6.240
G01 Z-2.200
G01 Z0
G00 Z2.000
G00 X84.964 Y12.314
G01 Z-2.200
G01 Z0
G00 Z2.000
G00 X89.670 Y16.800
G01 Z-2.200
G01 Z0
G00 Z2.000
G00 X87.584 Y21.984
G01 Z-2.200
G01 Z0
G00 Z2.000
G00 X86.836 Y23.938
G01 Z-2.200
G01 Z0
G00 Z2.000
G00 X90.500 Y27.800
G01 Z-2.200
G01 Z0
G00 Z2.000
G00 X90.600 Y34.660
G01 Z-2.200
G01 Z0
G00 Z2.000
G00 X90.610 Y32.900
G01 Z-2.200
G01 Z0
G00 Z2.000
G00 X86.841 Y31.210
G01 Z-2.200
G01 Z0
G00 Z2.000
G00 X83.900 Y31.210
G01 Z-2.200
G01 Z0
G00 Z2.000
G00 X83.700 Y27.300
G01 Z-2.200
G01 Z0
G00 Z2.000
G00 X83.700 Y24.800
G01 Z-2.200
G01 Z0
G00 Z2.000
G00 X79.999 Y24.674
G01 Z-2.200
G01 Z0
G00 Z2.000
G00 X65.450 Y23.968
G01 Z-2.200
G01 Z0
G00 Z2.000
G00 X64.900 Y27.000
G01 Z-2.200
G01 Z0
G00 Z2.000
G00 X62.590 Y28.700
G01 Z-2.200
G01 Z0
G00 Z2.000
G00 X64.100 Y31.210
G01 Z-2.200
G01 Z0
G00 Z2.000
G00 X62.640 Y38.600
G01 Z-2.200
G01 Z0
G00 Z2.000
G00 X61.661 Y41.200
G01 Z-2.200
G01 Z0
G00 Z2.000
G00 X56.980 Y38.600
G01 Z-2.200
G01 Z0
G00 Z2.000
G00 X51.700 Y31.200
G01 Z-2.200
G01 Z0
G00 Z2.000
G00 X50.437 Y26.540
G01 Z-2.200
G01 Z0
G00 Z2.000
G00 X48.400 Y26.000
G01 Z-2.200
G01 Z0
G00 Z2.000
G00 X50.593 Y24.787
G01 Z-2.200
G01 Z0
G00 Z2.000
G00 X51.499 Y19.605
G01 Z-2.200
G01 Z0
G00 Z2.000
G00 X59.200 Y19.400
G01 Z-2.200
G01 Z0
G00 Z2.000
G00 X60.600 Y20.670
G01 Z-2.200
G01 Z0
G00 Z2.000
G00 X65.450 Y21.468
G01 Z-2.200
G01 Z0
G00 Z2.000
G00 X69.019 Y20.396
G01 Z-2.200
G01 Z0
G00 Z2.000
G00 X69.970 Y15.126
G01 Z-2.200
G01 Z0
G00 Z2.000
G00 X66.358 Y12.046
G01 Z-2.200
G01 Z0
G00 Z2.000
G00 X61.800 Y6.240
G01 Z-2.200
G01 Z0
G00 Z2.000
G00 X61.800 Y4.480
G01 Z-2.200
G01 Z0
G00 Z2.000
G00 X46.800 Y4.600
G01 Z-2.200
G01 Z0
G00 Z2.000
G00 X43.100 Y1.500
G01 Z-2.200
G01 Z0
G00 Z2.000
G00 X40.000 Y9.300
G01 Z-2.200
G01 Z0
G00 Z2.000
G00 X40.529 Y10.706
G01 Z-2.200
G01 Z0
G00 Z2.000
G00 X39.160 Y10.380
G01 Z-2.200
G01 Z0
G00 Z2.000
G00 X36.400 Y10.380
G01 Z-2.200
G01 Z0
G00 Z2.000
G00 X35.300 Y9.300
G01 Z-2.200
G01 Z0
G00 Z2.000
G00 X31.400 Y8.200
G01 Z-2.200
G01 Z0
G00 Z2.000
G00 X30.451 Y10.880
G01 Z-2.200
G01 Z0
G00 Z2.000
G00 X31.401 Y11.820
G01 Z-2.200
G01 Z0
G00 Z2.000
G00 X30.151 Y12.180
G01 Z-2.200
G01 Z0
G00 Z2.000
G00 X24.400 Y13.800
G01 Z-2.200
G01 Z0
G00 Z2.000
G00 X25.600 Y14.500
G01 Z-2.200
G01 Z0
G00 Z2.000
G00 X24.066 Y14.774
G01 Z-2.200
G01 Z0
G00 Z2.000
G00 X22.900 Y17.400
G01 Z-2.200
G01 Z0
G00 Z2.000
G00 X21.100 Y15.900
G01 Z-2.200
G01 Z0
G00 Z2.000
G00 X8.000 Y9.800
G01 Z-2.200
G01 Z0
G00 Z2.000
G00 X4.100 Y1.250
G01 Z-2.200
G01 Z0
G00 Z2.000
G00 X6.000 Y9.800
G01 Z-2.200
G01 Z0
G00 Z2.000
M05
G00 Z20
G00 X0.0 Y0.0


