(G-CODE GENERATED BY FLATCAM v8.994 - www.flatcam.org - Version Date: 2020/11/7)

(Name: HYB_ESPA.drl_cnc)
(Type: G-code from Geometry)
(Units: MM)

(Created on Wednesday, 30 April 2025 at 21:40)

(This preprocessor is the default preprocessor used by FlatCAM.)
(It is made to work with MACH3 compatible motion controllers.)


(TOOLS DIAMETER: )
(Tool: 1 -> Dia: 0.8)
(Tool: 2 -> Dia: 0.8)
(Tool: 3 -> Dia: 0.8)
(Tool: 4 -> Dia: 0.8)
(Tool: 5 -> Dia: 0.8)
(Tool: 6 -> Dia: 0.8)
(Tool: 7 -> Dia: 0.9)
(Tool: 8 -> Dia: 0.95)
(Tool: 9 -> Dia: 0.99)
(Tool: 10 -> Dia: 1.0)
(Tool: 11 -> Dia: 1.2)
(Tool: 12 -> Dia: 1.2)
(Tool: 13 -> Dia: 1.3)
(Tool: 14 -> Dia: 1.4)
(Tool: 15 -> Dia: 1.5)
(Tool: 16 -> Dia: 3.2)
(Tool: 17 -> Dia: 0.8)
(Tool: 18 -> Dia: 0.8)
(Tool: 19 -> Dia: 0.8)
(Tool: 20 -> Dia: 1.2)
(Tool: 21 -> Dia: 1.2)

(FEEDRATE Z: )
(Tool: 1 -> Feedrate: 600.0)
(Tool: 2 -> Feedrate: 600.0)
(Tool: 3 -> Feedrate: 600.0)
(Tool: 4 -> Feedrate: 600.0)
(Tool: 5 -> Feedrate: 600.0)
(Tool: 6 -> Feedrate: 600.0)
(Tool: 7 -> Feedrate: 600.0)
(Tool: 8 -> Feedrate: 600.0)
(Tool: 9 -> Feedrate: 600.0)
(Tool: 10 -> Feedrate: 600.0)
(Tool: 11 -> Feedrate: 600.0)
(Tool: 12 -> Feedrate: 600.0)
(Tool: 13 -> Feedrate: 600.0)
(Tool: 14 -> Feedrate: 600.0)
(Tool: 15 -> Feedrate: 600.0)
(Tool: 16 -> Feedrate: 600.0)
(Tool: 17 -> Feedrate: 600.0)
(Tool: 18 -> Feedrate: 600.0)
(Tool: 19 -> Feedrate: 600.0)
(Tool: 20 -> Feedrate: 600.0)
(Tool: 21 -> Feedrate: 600.0)

(FEEDRATE RAPIDS: )
(Tool: 1 -> Feedrate Rapids: 1500)
(Tool: 2 -> Feedrate Rapids: 1500)
(Tool: 3 -> Feedrate Rapids: 1500)
(Tool: 4 -> Feedrate Rapids: 1500)
(Tool: 5 -> Feedrate Rapids: 1500)
(Tool: 6 -> Feedrate Rapids: 1500)
(Tool: 7 -> Feedrate Rapids: 1500)
(Tool: 8 -> Feedrate Rapids: 1500)
(Tool: 9 -> Feedrate Rapids: 1500)
(Tool: 10 -> Feedrate Rapids: 1500)
(Tool: 11 -> Feedrate Rapids: 1500)
(Tool: 12 -> Feedrate Rapids: 1500)
(Tool: 13 -> Feedrate Rapids: 1500)
(Tool: 14 -> Feedrate Rapids: 1500)
(Tool: 15 -> Feedrate Rapids: 1500)
(Tool: 16 -> Feedrate Rapids: 1500)
(Tool: 17 -> Feedrate Rapids: 1500)
(Tool: 18 -> Feedrate Rapids: 1500)
(Tool: 19 -> Feedrate Rapids: 1500)
(Tool: 20 -> Feedrate Rapids: 1500)
(Tool: 21 -> Feedrate Rapids: 1500)

(Z_CUT: )
(Tool: 1 -> Z_Cut: -2.2)
(Tool: 2 -> Z_Cut: -2.2)
(Tool: 3 -> Z_Cut: -2.2)
(Tool: 4 -> Z_Cut: -2.2)
(Tool: 5 -> Z_Cut: -2.2)
(Tool: 6 -> Z_Cut: -2.2)
(Tool: 7 -> Z_Cut: -2.2)
(Tool: 8 -> Z_Cut: -2.2)
(Tool: 9 -> Z_Cut: -2.2)
(Tool: 10 -> Z_Cut: -2.2)
(Tool: 11 -> Z_Cut: -2.2)
(Tool: 12 -> Z_Cut: -2.2)
(Tool: 13 -> Z_Cut: -2.2)
(Tool: 14 -> Z_Cut: -2.2)
(Tool: 15 -> Z_Cut: -2.2)
(Tool: 16 -> Z_Cut: -2.2)
(Tool: 17 -> Z_Cut: -2.2)
(Tool: 18 -> Z_Cut: -2.2)
(Tool: 19 -> Z_Cut: -2.2)
(Tool: 20 -> Z_Cut: -2.2)
(Tool: 21 -> Z_Cut: -2.2)

(Tools Offset: )
(Tool: 7 -> Offset Z: 0.0)
(Tool: 8 -> Offset Z: 0.0)
(Tool: 9 -> Offset Z: 0.0)
(Tool: 10 -> Offset Z: 0.0)

(Z_MOVE: )
(Tool: 1 -> Z_Move: 2)
(Tool: 2 -> Z_Move: 2)
(Tool: 3 -> Z_Move: 2)
(Tool: 4 -> Z_Move: 2)
(Tool: 5 -> Z_Move: 2)
(Tool: 6 -> Z_Move: 2)
(Tool: 7 -> Z_Move: 2)
(Tool: 8 -> Z_Move: 2)
(Tool: 9 -> Z_Move: 2)
(Tool: 10 -> Z_Move: 2)
(Tool: 11 -> Z_Move: 2)
(Tool: 12 -> Z_Move: 2)
(Tool: 13 -> Z_Move: 2)
(Tool: 14 -> Z_Move: 2)
(Tool: 15 -> Z_Move: 2)
(Tool: 16 -> Z_Move: 2)
(Tool: 17 -> Z_Move: 2)
(Tool: 18 -> Z_Move: 2)
(Tool: 19 -> Z_Move: 2)
(Tool: 20 -> Z_Move: 2)
(Tool: 21 -> Z_Move: 2)

(Z Toolchange: 20.0 mm)
(X,Y Toolchange: 0.00000000, 0.00000000 mm)
(Z Start: None mm)
(Z End: 20.0 mm)
(X,Y End: 0.00000000, 0.00000000 mm)
(Steps per circle: 64)
(Preprocessor Excellon: Default_no_M6)

(X range:     1.798 ...    99.250  mm)
(Y range:     0.850 ...    58.600  mm)

(Spindle Speed: 25 RPM)
G21
G90
G94

G01 F600

M5
G00 Z20.000
T7
G00 X0.000 Y0.000                
(MSG, Change to Tool Dia = 0.90000000 ||| Total drills for tool T7 = 125)
M0
G00 Z20.000
        
G01 F600
M03 S25
G00 X17.800 Y51.300
G01 Z-2.200
G01 Z0
G00 Z2.000
G00 X2.400 Y44.850
G01 Z-2.200
G01 Z0
G00 Z2.000
G00 X2.400 Y40.350
G01 Z-2.200
G01 Z0
G00 Z2.000
G00 X3.000 Y12.600
G01 Z-2.200
G01 Z0
G00 Z2.000
G00 X5.500 Y12.600
G01 Z-2.200
G01 Z0
G00 Z2.000
G00 X8.000 Y12.600
G01 Z-2.200
G01 Z0
G00 Z2.000
G00 X17.800 Y38.600
G01 Z-2.200
G01 Z0
G00 Z2.000
G00 X22.880 Y38.600
G01 Z-2.200
G01 Z0
G00 Z2.000
G00 X25.420 Y38.600
G01 Z-2.200
G01 Z0
G00 Z2.000
G00 X27.960 Y38.600
G01 Z-2.200
G01 Z0
G00 Z2.000
G00 X30.500 Y38.600
G01 Z-2.200
G01 Z0
G00 Z2.000
G00 X33.040 Y38.600
G01 Z-2.200
G01 Z0
G00 Z2.000
G00 X39.200 Y38.600
G01 Z-2.200
G01 Z0
G00 Z2.000
G00 X44.280 Y38.600
G01 Z-2.200
G01 Z0
G00 Z2.000
G00 X46.820 Y38.600
G01 Z-2.200
G01 Z0
G00 Z2.000
G00 X49.360 Y38.600
G01 Z-2.200
G01 Z0
G00 Z2.000
G00 X51.900 Y38.600
G01 Z-2.200
G01 Z0
G00 Z2.000
G00 X54.440 Y38.600
G01 Z-2.200
G01 Z0
G00 Z2.000
G00 X54.100 Y26.000
G01 Z-2.200
G01 Z0
G00 Z2.000
G00 X56.600 Y26.000
G01 Z-2.200
G01 Z0
G00 Z2.000
G00 X59.100 Y26.000
G01 Z-2.200
G01 Z0
G00 Z2.000
G00 X50.505 Y8.000
G01 Z-2.200
G01 Z0
G00 Z2.000
G00 X50.505 Y5.500
G01 Z-2.200
G01 Z0
G00 Z2.000
G00 X50.505 Y3.000
G01 Z-2.200
G01 Z0
G00 Z2.000
G00 X57.305 Y3.000
G01 Z-2.200
G01 Z0
G00 Z2.000
G00 X57.305 Y5.500
G01 Z-2.200
G01 Z0
G00 Z2.000
G00 X57.305 Y8.000
G01 Z-2.200
G01 Z0
G00 Z2.000
G00 X65.401 Y3.000
G01 Z-2.200
G01 Z0
G00 Z2.000
G00 X65.401 Y5.500
G01 Z-2.200
G01 Z0
G00 Z2.000
G00 X65.401 Y8.000
G01 Z-2.200
G01 Z0
G00 Z2.000
G00 X72.201 Y8.000
G01 Z-2.200
G01 Z0
G00 Z2.000
G00 X72.201 Y5.500
G01 Z-2.200
G01 Z0
G00 Z2.000
G00 X72.201 Y3.000
G01 Z-2.200
G01 Z0
G00 Z2.000
G00 X80.200 Y3.000
G01 Z-2.200
G01 Z0
G00 Z2.000
G00 X80.200 Y5.500
G01 Z-2.200
G01 Z0
G00 Z2.000
G00 X80.200 Y8.000
G01 Z-2.200
G01 Z0
G00 Z2.000
G00 X87.000 Y8.000
G01 Z-2.200
G01 Z0
G00 Z2.000
G00 X87.000 Y5.500
G01 Z-2.200
G01 Z0
G00 Z2.000
G00 X87.000 Y3.000
G01 Z-2.200
G01 Z0
G00 Z2.000
G00 X94.600 Y3.000
G01 Z-2.200
G01 Z0
G00 Z2.000
G00 X94.600 Y5.500
G01 Z-2.200
G01 Z0
G00 Z2.000
G00 X94.600 Y8.000
G01 Z-2.200
G01 Z0
G00 Z2.000
G00 X94.500 Y17.800
G01 Z-2.200
G01 Z0
G00 Z2.000
G00 X97.000 Y17.800
G01 Z-2.200
G01 Z0
G00 Z2.000
G00 X97.000 Y26.011
G01 Z-2.200
G01 Z0
G00 Z2.000
G00 X94.500 Y26.011
G01 Z-2.200
G01 Z0
G00 Z2.000
G00 X94.500 Y32.811
G01 Z-2.200
G01 Z0
G00 Z2.000
G00 X97.000 Y32.811
G01 Z-2.200
G01 Z0
G00 Z2.000
G00 X96.260 Y38.600
G01 Z-2.200
G01 Z0
G00 Z2.000
G00 X96.965 Y41.500
G01 Z-2.200
G01 Z0
G00 Z2.000
G00 X94.425 Y41.500
G01 Z-2.200
G01 Z0
G00 Z2.000
G00 X93.720 Y38.600
G01 Z-2.200
G01 Z0
G00 Z2.000
G00 X91.180 Y38.600
G01 Z-2.200
G01 Z0
G00 Z2.000
G00 X88.640 Y38.600
G01 Z-2.200
G01 Z0
G00 Z2.000
G00 X86.100 Y38.600
G01 Z-2.200
G01 Z0
G00 Z2.000
G00 X81.020 Y38.600
G01 Z-2.200
G01 Z0
G00 Z2.000
G00 X75.340 Y38.600
G01 Z-2.200
G01 Z0
G00 Z2.000
G00 X72.800 Y38.600
G01 Z-2.200
G01 Z0
G00 Z2.000
G00 X70.260 Y38.600
G01 Z-2.200
G01 Z0
G00 Z2.000
G00 X67.720 Y38.600
G01 Z-2.200
G01 Z0
G00 Z2.000
G00 X65.180 Y38.600
G01 Z-2.200
G01 Z0
G00 Z2.000
G00 X60.100 Y38.600
G01 Z-2.200
G01 Z0
G00 Z2.000
G00 X60.100 Y51.300
G01 Z-2.200
G01 Z0
G00 Z2.000
G00 X62.640 Y51.300
G01 Z-2.200
G01 Z0
G00 Z2.000
G00 X65.180 Y51.300
G01 Z-2.200
G01 Z0
G00 Z2.000
G00 X67.720 Y51.300
G01 Z-2.200
G01 Z0
G00 Z2.000
G00 X70.260 Y51.300
G01 Z-2.200
G01 Z0
G00 Z2.000
G00 X72.800 Y51.300
G01 Z-2.200
G01 Z0
G00 Z2.000
G00 X75.340 Y51.300
G01 Z-2.200
G01 Z0
G00 Z2.000
G00 X75.000 Y48.700
G01 Z-2.200
G01 Z0
G00 Z2.000
G00 X75.000 Y46.160
G01 Z-2.200
G01 Z0
G00 Z2.000
G00 X77.800 Y46.160
G01 Z-2.200
G01 Z0
G00 Z2.000
G00 X77.800 Y48.700
G01 Z-2.200
G01 Z0
G00 Z2.000
G00 X77.880 Y51.300
G01 Z-2.200
G01 Z0
G00 Z2.000
G00 X81.020 Y51.300
G01 Z-2.200
G01 Z0
G00 Z2.000
G00 X83.560 Y51.300
G01 Z-2.200
G01 Z0
G00 Z2.000
G00 X86.100 Y51.300
G01 Z-2.200
G01 Z0
G00 Z2.000
G00 X88.640 Y51.300
G01 Z-2.200
G01 Z0
G00 Z2.000
G00 X91.180 Y51.300
G01 Z-2.200
G01 Z0
G00 Z2.000
G00 X93.720 Y51.300
G01 Z-2.200
G01 Z0
G00 Z2.000
G00 X96.260 Y51.300
G01 Z-2.200
G01 Z0
G00 Z2.000
G00 X95.700 Y48.700
G01 Z-2.200
G01 Z0
G00 Z2.000
G00 X95.700 Y46.160
G01 Z-2.200
G01 Z0
G00 Z2.000
G00 X98.500 Y46.160
G01 Z-2.200
G01 Z0
G00 Z2.000
G00 X98.500 Y48.700
G01 Z-2.200
G01 Z0
G00 Z2.000
G00 X98.800 Y51.300
G01 Z-2.200
G01 Z0
G00 Z2.000
G00 X97.000 Y57.200
G01 Z-2.200
G01 Z0
G00 Z2.000
G00 X94.500 Y57.200
G01 Z-2.200
G01 Z0
G00 Z2.000
G00 X92.000 Y57.200
G01 Z-2.200
G01 Z0
G00 Z2.000
G00 X89.500 Y57.200
G01 Z-2.200
G01 Z0
G00 Z2.000
G00 X76.100 Y57.200
G01 Z-2.200
G01 Z0
G00 Z2.000
G00 X73.600 Y57.200
G01 Z-2.200
G01 Z0
G00 Z2.000
G00 X71.100 Y57.200
G01 Z-2.200
G01 Z0
G00 Z2.000
G00 X68.600 Y57.200
G01 Z-2.200
G01 Z0
G00 Z2.000
G00 X57.000 Y57.200
G01 Z-2.200
G01 Z0
G00 Z2.000
G00 X54.500 Y57.200
G01 Z-2.200
G01 Z0
G00 Z2.000
G00 X52.000 Y57.200
G01 Z-2.200
G01 Z0
G00 Z2.000
G00 X49.500 Y57.200
G01 Z-2.200
G01 Z0
G00 Z2.000
G00 X54.440 Y51.300
G01 Z-2.200
G01 Z0
G00 Z2.000
G00 X56.980 Y51.300
G01 Z-2.200
G01 Z0
G00 Z2.000
G00 X56.800 Y48.700
G01 Z-2.200
G01 Z0
G00 Z2.000
G00 X56.800 Y46.160
G01 Z-2.200
G01 Z0
G00 Z2.000
G00 X54.000 Y46.160
G01 Z-2.200
G01 Z0
G00 Z2.000
G00 X54.000 Y48.700
G01 Z-2.200
G01 Z0
G00 Z2.000
G00 X51.900 Y51.300
G01 Z-2.200
G01 Z0
G00 Z2.000
G00 X49.360 Y51.300
G01 Z-2.200
G01 Z0
G00 Z2.000
G00 X46.820 Y51.300
G01 Z-2.200
G01 Z0
G00 Z2.000
G00 X44.280 Y51.300
G01 Z-2.200
G01 Z0
G00 Z2.000
G00 X41.740 Y51.300
G01 Z-2.200
G01 Z0
G00 Z2.000
G00 X39.200 Y51.300
G01 Z-2.200
G01 Z0
G00 Z2.000
G00 X35.580 Y51.300
G01 Z-2.200
G01 Z0
G00 Z2.000
G00 X35.400 Y48.700
G01 Z-2.200
G01 Z0
G00 Z2.000
G00 X35.400 Y46.160
G01 Z-2.200
G01 Z0
G00 Z2.000
G00 X32.600 Y46.160
G01 Z-2.200
G01 Z0
G00 Z2.000
G00 X32.600 Y48.700
G01 Z-2.200
G01 Z0
G00 Z2.000
G00 X33.040 Y51.300
G01 Z-2.200
G01 Z0
G00 Z2.000
G00 X30.500 Y51.300
G01 Z-2.200
G01 Z0
G00 Z2.000
G00 X27.960 Y51.300
G01 Z-2.200
G01 Z0
G00 Z2.000
G00 X31.600 Y57.200
G01 Z-2.200
G01 Z0
G00 Z2.000
G00 X29.100 Y57.200
G01 Z-2.200
G01 Z0
G00 Z2.000
G00 X26.600 Y57.200
G01 Z-2.200
G01 Z0
G00 Z2.000
G00 X24.100 Y57.200
G01 Z-2.200
G01 Z0
G00 Z2.000
G00 X25.420 Y51.300
G01 Z-2.200
G01 Z0
G00 Z2.000
G00 X22.880 Y51.300
G01 Z-2.200
G01 Z0
G00 Z2.000
G00 X20.340 Y51.300
G01 Z-2.200
G01 Z0
G00 Z2.000
M05
G00 Z20
G00 X0.0 Y0.0


